proprietary/assets/icons/gebouwen/supermarktketens.svg

<svg enable-background="new 0 0 64 64" height="64" viewBox="0 0 64 64" width="64" xmlns="http://www.w3.org/2000/svg"><path d="m0 0h64v64h-64z" fill="none"/><path d="m26.9 38h2.1v-2h-2.4zm-16.9-4.8v-1.2c0-1 .4-2 1.2-2.7l10-9.4-3.9-3.7c-.2-.2-.6-.2-.9 0l-15 14.2c-.3.2-.4.5-.4.9v.9c0 .4.3.6.6.6h2.5v13.2h9.9v-10h-1.2c-1.5 0-2.8-1.3-2.8-2.8zm16.2.8h2.8v-2h-3.1zm36.4-3.7-15-14.2c-.2-.2-.6-.2-.9 0l-3.9 3.7 10 9.5c.8.7 1.2 1.7 1.2 2.7v1.2c0 1.5-1.3 2.8-2.8 2.8h-1.2v10h9.8v-13.2h2.5c.3 0 .6-.3.6-.6v-.9c.1-.4-.1-.7-.3-1zm-31.6 7.7h3v-2h-3zm5-4h2.6l.3-2h-2.9zm16-.8v-1.2c0-.5-.2-.9-.5-1.2l-19-17.9c-.3-.3-.8-.3-1.1 0l-18.9 17.9c-.3.3-.5.7-.5 1.2v1.2c0 .4.4.8.8.8h3.2v16.9h32v-16.9h3.2c.4 0 .8-.4.8-.8zm-26.5 15.1c-1 0-1.8-.8-1.8-1.8s.8-1.8 1.8-1.8 1.8.8 1.8 1.8-.8 1.8-1.8 1.8zm13 0c-1 0-1.8-.8-1.8-1.8s.8-1.8 1.8-1.8 1.8.8 1.8 1.8-.8 1.8-1.8 1.8zm1.7-9.2c-.1.5-.5.9-1 .9h-13.2c-.6 0-1 .4-1 1s.4 1 1 1h13c.6 0 1 .4 1 1s-.4 1-1 1h-13.3c-1.7 0-3-1.3-3-3 0-1.3.8-2.4 1.9-2.8l-1.3-8.2c-1.3 0-2.9-.3-2.9-1.2 0-.5.4-.8.9-.8h3.1c.5 0 .9.4 1 .8l.2 1.2h14.7c.3 0 .6.1.8.3s.3.5.2.8zm-4.2-1.1h2l.3-2h-2.3zm-5-4h3v-2h-3z"/></svg>

<?xml version="1.0" encoding="utf-8"?>
<!-- Generator: Adobe Illustrator 22.1.0, SVG Export Plug-In . SVG Version: 6.00 Build 0)  -->
<!DOCTYPE svg PUBLIC "-//W3C//DTD SVG 1.1//EN" "http://www.w3.org/Graphics/SVG/1.1/DTD/svg11.dtd">
<svg version="1.1" xmlns="http://www.w3.org/2000/svg" xmlns:xlink="http://www.w3.org/1999/xlink" x="0px" y="0px" width="64px"
	 height="64px" viewBox="0 0 64 64" style="enable-background:new 0 0 64 64;" xml:space="preserve">
<style type="text/css">
	.st0{fill:none;}
</style>
<g id="Box">
	<rect class="st0" width="64" height="64"/>
</g>
<g id="Icon">
	<g>
		<g>
			<path d="M26.9,38H29v-2h-2.4L26.9,38z M10,33.2V32c0-1,0.4-2,1.2-2.7l10-9.4l-3.9-3.7c-0.2-0.2-0.6-0.2-0.9,0l-15,14.2
				C1.1,30.6,1,30.9,1,31.3v0.9c0,0.4,0.3,0.6,0.6,0.6h2.5V46H14V36h-1.2C11.3,36,10,34.7,10,33.2z M26.2,34H29v-2h-3.1L26.2,34z
				 M62.6,30.3l-15-14.2c-0.2-0.2-0.6-0.2-0.9,0l-3.9,3.7l10,9.5C53.6,30,54,31,54,32v1.2c0,1.5-1.3,2.8-2.8,2.8H50v10h9.8V32.8h2.5
				c0.3,0,0.6-0.3,0.6-0.6v-0.9C63,30.9,62.8,30.6,62.6,30.3z M31,38h3v-2h-3V38z M36,34h2.6l0.3-2H36V34z M52,33.2V32
				c0-0.5-0.2-0.9-0.5-1.2L32.5,12.9c-0.3-0.3-0.8-0.3-1.1,0L12.5,30.8C12.2,31.1,12,31.5,12,32v1.2c0,0.4,0.4,0.8,0.8,0.8H16v16.9
				h32V34h3.2C51.6,34,52,33.6,52,33.2z M25.5,48.3c-1,0-1.8-0.8-1.8-1.8c0-1,0.8-1.8,1.8-1.8s1.8,0.8,1.8,1.8
				C27.3,47.5,26.5,48.3,25.5,48.3z M38.5,48.3c-1,0-1.8-0.8-1.8-1.8c0-1,0.8-1.8,1.8-1.8s1.8,0.8,1.8,1.8
				C40.3,47.5,39.5,48.3,38.5,48.3z M40.2,39.1c-0.1,0.5-0.5,0.9-1,0.9H26c-0.6,0-1,0.4-1,1s0.4,1,1,1h13c0.6,0,1,0.4,1,1
				s-0.4,1-1,1H25.7c-1.7,0-3-1.3-3-3c0-1.3,0.8-2.4,1.9-2.8L23.3,30c-1.3,0-2.9-0.3-2.9-1.2c0-0.5,0.4-0.8,0.9-0.8h3.1
				c0.5,0,0.9,0.4,1,0.8l0.2,1.2h14.7c0.3,0,0.6,0.1,0.8,0.3s0.3,0.5,0.2,0.8L40.2,39.1z M36,38h2l0.3-2H36V38z M31,34h3v-2h-3V34z"
				/>
		</g>
	</g>
</g>
</svg>
